!!!OTL: Hallelujah Gott zu Loben
!!!COL: Reger
!!!COL:
**kern	**text	**text	**text	**text	**text
*clefG2	*	*	*	*	*
*k[f#]	*	*	*	*	*
*M4/4	*	*	*	*	*
*G:	*	*	*	*	*
=1	=1	=1	=1	=1	=1
4d	1.Hal-	2.Setzt	3.Heil	4.Er	5.Er
4g	le-	auf	dem	der	ist's,
4a	lu-	Fürs-	der	Him-	der
4b	ja!	ten,	im	mel,	den
=2	=2	=2	=2	=2	=2
4ee	Gott	kein	Er-	Meer	Fremd-
4dd	zu	Ver-	den	und	ling
4cc	lo-	trau-	le-	Er-	schüt-
4b	ben	en,	ben	de	zet,
=3	=3	=3	=3	=3	=3
4a	blei-	Fürs-	Ja-	die	der
4b	be	ten	kobs	mit	die
4cc	mei-	heil	Gott	all	Wit-
4dd	nes	steht	zur	ihrer	wen
=4	=4	=4	=4	=4	=4
4b	Her-	nim-	Hil-	Füll	hält
4a	zens	mer	fe	und	im
2g;	Freud,	fest!	hat,	Pracht	Stand,
=5	=5	=5	=5	=5	=5
4d	e-	Wollt	der	durch	der
4g	wig	ihr	sich	Sein	die
4a	sei	auf	dem	schaf-	Wai-
4b	mein	den	hat	fen	sen
=6	=6	=6	=6	=6	=6
4ee	Gott	Mens-	ganz	des	un-
4dd	er	chen	er-	"Es	ter-
4cc	ho-	bau-	ge-	wer-	stüt-
4b	ben	en,	ben	de"	zet,
=7	=7	=7	=7	=7	=7
4a	mei-	des	des	hat	ja,
4b	ne	sen	sen	aus	sie
4cc	Har-	Geist	Nam	nichts	führt
4dd	fe	ihn	ist	her-	an
=8	=8	=8	=8	=8	=8
4b	Ihm	bald	Rat	vor-	Sei-
4a	ge-	ver-	und	ge-	ner
2g;	weiht!	lässt?	Tat!	bracht,	Hand.
=9	=9	=9	=9	=9	=9
4b	Ja,	Seht,	Hofft	Er,	Die
4a	so-	er	er	der	Ihm
4g	lang	fällt,	von	Herr-	ruch
4f#	ich	des	Herrn	scher	los
=10	=10	=10	=10	=10	=10
4g	leb	To-	Herrn	al-	wi-
4e	und	des	sein	ler-	der-
2d;	bin,	Raub,	Heil,	Welt,	stehn,
=11	=11	=11	=11	=11	=11
4dd	dank,	und	seht,	ist's,	müs-
4ee	an-	sein	Gott	der	sen
4dd	bet	Ent-	sel-	Treu	rat
4b	und	wurf	ber	und	los
=12	=12	=12	=12	=12	=12
4cc	preis	in	wird	Glaub-	ir-
4a	ich	den	sein	en	re-
2g;	Ihn.	Staub!	Teil!	hält!	gehn.
==	==	==	==	==	==
*-	*-	*-	*-	*-	*-
